X:1
T:Title
%%score { 1 | ( 2 3 ) }
L:1/8
M:4/4
K:Eb
V:1 treble nm="Grand Piano"
V:2 bass 
V:3 bass 
V:1
 z4 z2[Q:1/4=112] B2 | c2 B2 B2 G2 | [DF]4 E2 G2 | F2 G2 A2 [DB]2 | [EG]6 [GB]2 | %5
 [Ac]2 [GB]2 [GB]2 [EG]2 | [EG]4 [DF]2 [DFB]2 | =A2 B2 d2 c2 | [DB]6 [DB]2 | %9
 [FA]2 [EG]2 [FA]2 [DF]2 | [EG]4 [GB]2 [Ge]2 | [Bd]2 c2 A2 c2 | [GB]6 [GB]2 | %13
 [Ge]2 [Bd]2 [Ac]2 [GB]2 | [Ac]2 d2 [Ece]2 [EAc]2 | [EGB]2 [EG]2 [A,DF]3 [B,DG] |[M:3/4] [G,E]6 |] %17
V:2
 z4 z2 [E,G,E]2 | [E,A,E]2 [E,G,E]2 [E,G,E]2 [E,B,E]2 | [B,,A,]4 [E,G,]2 [E,B,E]2 | %3
 [A,B,D]2 [G,B,E]2 [F,B,D]2 [B,,B,]2 | [E,B,]6 [E,E]2 | [E,E]2 [E,E]2 [E,E]2 [E,B,]2 | %6
 [B,,B,]4 [B,,B,]2 B,,2 | [F,CE]2 [F,B,D]2 [F,B,F]2 [F,=A,E]2 | [B,,B,]6 [B,,B,]2 | %9
 [B,,B,]2 [B,,B,]2 [B,,B,]2 [B,,B,]2 | [E,B,]4 [E,E]2 [E,E]2 | [A,E]2 [A,EA]2 [A,CE]2 [A,EA]2 | %12
 [E,E]6 [E,E]2 | [E,B,]2 [E,E]2 [E,E]2 [E,E]2 | z2 B2[K:bass] A,2 A,2 | B,2 B,2 B,,3 B,, | %16
[M:3/4] E,6 |] %17
V:3
 x8 | x8 | x8 | x8 | x8 | x8 | x8 | x8 | x8 | x8 | x8 | x8 | x8 | x8 | [A,E]4[K:bass] z4 | x8 | %16
[M:3/4] x6 |] %17

